packages/kaspersky-hexa-ui-icons/src/iconsSVGs/24/NotInstalled.svg

<svg width="24" height="24" viewBox="0 0 24 24" fill="none" xmlns="http://www.w3.org/2000/svg">
<path fill-rule="evenodd" clip-rule="evenodd" d="M2.01367 7C2.01367 5.34315 3.35682 4 5.01367 4H19.0137C20.6705 4 22.0137 5.34315 22.0137 7V17C22.0137 18.6569 20.6705 20 19.0137 20H5.01367C3.35682 20 2.01367 18.6569 2.01367 17V7ZM9.29289 9.29289C9.68342 8.90237 10.3166 8.90237 10.7071 9.29289L12 10.5858L13.2929 9.29289C13.6834 8.90237 14.3166 8.90237 14.7071 9.29289C15.0976 9.68342 15.0976 10.3166 14.7071 10.7071L13.4142 12L14.7071 13.2929C15.0976 13.6834 15.0976 14.3166 14.7071 14.7071C14.3166 15.0976 13.6834 15.0976 13.2929 14.7071L12 13.4142L10.7071 14.7071C10.3166 15.0976 9.68342 15.0976 9.29289 14.7071C8.90237 14.3166 8.90237 13.6834 9.29289 13.2929L10.5858 12L9.29289 10.7071C8.90237 10.3166 8.90237 9.68342 9.29289 9.29289Z" fill="black"/>
</svg>

<svg xmlns="http://www.w3.org/2000/svg" width="24" height="24" fill="none" viewBox="0 0 24 24"><path fill="#000" fill-rule="evenodd" d="M2.0137 7c0-1.6569 1.3431-3 3-3h14c1.6568 0 3 1.3431 3 3v10c0 1.6569-1.3432 3-3 3h-14c-1.6569 0-3-1.3431-3-3zm7.2792 2.2929c.3905-.3905 1.0237-.3905 1.4142 0L12 10.5858l1.2929-1.293c.3905-.3904 1.0237-.3904 1.4142 0 .3905.3906.3905 1.0238 0 1.4143L13.4142 12l1.2929 1.2929c.3905.3905.3905 1.0237 0 1.4142s-1.0237.3905-1.4142 0L12 13.4142l-1.2929 1.2929c-.3905.3905-1.0237.3905-1.4142 0s-.3905-1.0237 0-1.4142L10.5858 12l-1.293-1.2929c-.3904-.3905-.3904-1.0237 0-1.4142" clip-rule="evenodd"/></svg>
